images_sukapura_svg/cmd/sc_formproperties.svg

<svg viewBox="0 0 16 16" xmlns="http://www.w3.org/2000/svg" xmlns:xlink="http://www.w3.org/1999/xlink"><linearGradient id="a" gradientUnits="userSpaceOnUse" x1="9.491526" x2="8.81356" y1="1.084746" y2="15.18644"><stop offset="0" stop-color="#848489"/><stop offset="1" stop-color="#616165"/></linearGradient><linearGradient id="b" gradientUnits="userSpaceOnUse" x1="61" x2="61" y1="29" y2="18"><stop offset="0" stop-color="#e9e9e9"/><stop offset=".2857143" stop-color="#f2f2f2"/><stop offset="1" stop-color="#fbfbfb"/></linearGradient>


     /&amp;gt;
 <path d="m1 4h14v11h-14z" fill="url(#b)"/><path d="m1 0c-.554 0-1 .446-1 1v14c0 .554.446 1 1 1h14c.554 0 1-.446 1-1v-14c0-.554-.446-1-1-1zm0 4h14v11h-14z" fill="url(#a)"/><g fill="#808080"><path d="m6.5 6c-.277 0-.5.223-.5.5v2c0 .277.223.5.5.5h7c.277 0 .5-.223.5-.5v-2c0-.277-.223-.5-.5-.5zm.5 1h6v1h-6z"/><path d="m6.5 10c-.277 0-.5.223-.5.5v2c0 .277.223.5.5.5h7c.277 0 .5-.223.5-.5v-2c0-.277-.223-.5-.5-.5zm.5 1h6v1h-6z"/><path d="m2.5 6c-.277 0-.5.223-.5.5v2c0 .277.223.5.5.5h2c.277 0 .5-.223.5-.5v-2c0-.277-.223-.5-.5-.5zm.5 1h1v1h-1z"/><path d="m2.5 10c-.277 0-.5.223-.5.5v2c0 .277.223.5.5.5h2c.277 0 .5-.223.5-.5v-2c0-.277-.223-.5-.5-.5zm.5 1h1v1h-1z"/></g></svg>

<?xml version="1.0" encoding="UTF-8" standalone="no"?>
<svg
   xmlns:dc="http://purl.org/dc/elements/1.1/"
   xmlns:cc="http://creativecommons.org/ns#"
   xmlns:rdf="http://www.w3.org/1999/02/22-rdf-syntax-ns#"
   xmlns:svg="http://www.w3.org/2000/svg"
   xmlns="http://www.w3.org/2000/svg"
   xmlns:xlink="http://www.w3.org/1999/xlink"
   xmlns:sodipodi="http://sodipodi.sourceforge.net/DTD/sodipodi-0.dtd"
   xmlns:inkscape="http://www.inkscape.org/namespaces/inkscape"
   viewBox="0 0 16 16"
   version="1.1"
   id="svg24"
   sodipodi:docname="sc_formproperties.svg"
   inkscape:version="0.92.3 (2405546, 2018-03-11)"><metadata
   id="metadata30">
  <rdf:RDF>
    <cc:Work
       rdf:about="">
      <dc:format>image/svg+xml</dc:format>
      <dc:type
         rdf:resource="http://purl.org/dc/dcmitype/StillImage" />
      <dc:title></dc:title>
    </cc:Work>
  </rdf:RDF>
</metadata>
<defs
   id="defs28">
  <linearGradient
     gradientTransform="translate(54,14)"
     id="a"
     gradientUnits="userSpaceOnUse"
     x1="8"
     x2="8"
     y1="15"
     y2="1">
    <stop
       offset="0"
       stop-color="#e9e9e9"
       id="stop2645" />
    <stop
       offset=".2857143"
       stop-color="#f2f2f2"
       id="stop2647" />
    <stop
       offset="1"
       stop-color="#fbfbfb"
       id="stop2649" />
  </linearGradient>
  <linearGradient
     inkscape:collect="always"
     id="linearGradient2434">
    <stop
       style="stop-color:#848489;stop-opacity:1"
       offset="0"
       id="stop2430" />
    <stop
       style="stop-color:#616165;stop-opacity:1"
       offset="1"
       id="stop2432" />
  </linearGradient>
  <linearGradient
     gradientTransform="translate(-39.576271,-0.94915254)"
     id="b"
     gradientUnits="userSpaceOnUse"
     x1="8"
     x2="8"
     y1="1"
     y2="19">
    <stop
       offset="0"
       stop-color="#fff"
       id="stop2652" />
    <stop
       offset="1"
       stop-color="#fff"
       stop-opacity="0"
       id="stop2654" />
  </linearGradient>
  <linearGradient
     inkscape:collect="always"
     xlink:href="#linearGradient2434"
     id="linearGradient929"
     x1="9.4915257"
     y1="1.0847458"
     x2="8.8135595"
     y2="15.18644"
     gradientUnits="userSpaceOnUse" />
  <linearGradient
     inkscape:collect="always"
     xlink:href="#a"
     id="linearGradient944"
     x1="7"
     y1="15"
     x2="7"
     y2="4"
     gradientUnits="userSpaceOnUse" />
</defs>
<sodipodi:namedview
   pagecolor="#ffffff"
   bordercolor="#666666"
   borderopacity="1"
   objecttolerance="10"
   gridtolerance="10"
   guidetolerance="10"
   inkscape:pageopacity="0"
   inkscape:pageshadow="2"
   inkscape:window-width="1366"
   inkscape:window-height="716"
   id="namedview26"
   showgrid="true"
   inkscape:zoom="7.375"
   inkscape:cx="1.9126907"
   inkscape:cy="-2.5326342"
   inkscape:window-x="-8"
   inkscape:window-y="-8"
   inkscape:window-maximized="1"
   inkscape:current-layer="svg24">
  <inkscape:grid
     type="xygrid"
     id="grid931" />
</sodipodi:namedview>


     /&gt;
 <path
   d="m1 4h14v11h-14z"
   fill="#fff"
   id="path2"
   style="fill-opacity:1;fill:url(#linearGradient944)" />
<path
   d="m1 0c-.554 0-1 .446-1 1v14c0 .554.446 1 1 1h14c .554 0 1-.446 1-1v-14c0-.554-.446-1-1-1zm0 4h14v11h-14z"
   fill="#808080"
   id="path4"
   style="fill-opacity:1;fill:url(#linearGradient929)" />
<path
   style="fill:#808080"
   d="M 6.5,6 C 6.223,6 6,6.223 6,6.5 v 2 C 6,8.777 6.223,9 6.5,9 h 7 C 13.777,9 14,8.777 14,8.5 v -2 C 14,6.223 13.777,6 13.5,6 Z M 7,7 h 6 V 8 H 7 Z"
   id="rect6"
   inkscape:connector-curvature="0"
   sodipodi:nodetypes="sssssssssccccc" />
<path
   sodipodi:nodetypes="sssssssssccccc"
   inkscape:connector-curvature="0"
   id="path936"
   d="M 6.5,10 C 6.223,10 6,10.223 6,10.5 v 2 C 6,12.777 6.223,13 6.5,13 h 7 c 0.277,0 0.5,-0.223 0.5,-0.5 v -2 C 14,10.223 13.777,10 13.5,10 Z M 7,11 h 6 v 1 H 7 Z"
   style="fill:#808080" />
<path
   sodipodi:nodetypes="sssssssssccccc"
   inkscape:connector-curvature="0"
   id="path946"
   d="M 2.5,6 C 2.223,6 2,6.223 2,6.5 v 2 C 2,8.777 2.223,9 2.5,9 h 2 C 4.777,9 5,8.777 5,8.5 v -2 C 5,6.223 4.777,6 4.5,6 Z M 3,7 H 4 V 8 H 3 Z"
   style="fill:#808080" />
<path
   style="fill:#808080"
   d="M 2.5,10 C 2.223,10 2,10.223 2,10.5 v 2 C 2,12.777 2.223,13 2.5,13 h 2 C 4.777,13 5,12.777 5,12.5 v -2 C 5,10.223 4.777,10 4.5,10 Z M 3,11 h 1 v 1 H 3 Z"
   id="path948"
   inkscape:connector-curvature="0"
   sodipodi:nodetypes="sssssssssccccc" />
</svg>
